X:1
T:Tex-i-an Boys
M:4/4
L:1/8
K:C
 CC C2 E2 E2| DD DD C4| CC CC EE E2| DD D2 C4| G2 G2 F2 F2| EE EE D4|\
 CC CC EE EE| DC D2 C4| CC CC EE EE| DC D2 C4|
